X: 38845
T: Sun In The Stream, The
R: waltz
M: 3/4
K: Gmajor
"G"GA|"Em"B2 BA Bd|"CM7"e2 B2 G2|"D" A2 AG FA|"Bm7"D4 EF|
"CM7"G2 B2 G2|"D"A2 G2 F2|"Em"E6|E4 GA|"Em"B2 BA Bd|
"CM7"e2 B2 G2|"D"A2 AF Ad|"Bm7"D4 EF|"CM7"G2 B2 G2|"D"A4 d2|
"E"e6|e4 z "D/F#"F|"G" G2 B2 G2|"D/F#"d4 cB|"C" G2 E2 G2|"D"A4 Bc|
"Bm7"d4 B2|"CM7"G4 GA|"Em"B4 cB|"D" A6|"G" G2 B2 BG|"D/F#"d4 cB|
"C"G2 E2 G2|"D"A6|"B/D#"B4 ^d2|"Em"e6|"F" =f6|"C" e4 c2|
"D"d6|d4 GA|"Em"B2 BA Bd|"CM7"e2 B2 G2|"D" A2 AG FA|
"Bm7"D4 EF|"CM7"G2 B2 G2|"D"A2 G2 F2|"Em" E6|E4 GA|"Em" B2 BA Bd|
"CM7"e2 B2 G2|"D" A2 AF Ad|"D" D4 EF|"CM7" G2 B2 G2|"D"A4 d2|
"E"e6|e4 EF|"CM7" G2 B2 G2|"D"A2 G2 F2|"E" E6|E4||

